img/icon/star_blue-yellow.svg

<svg width="20" height="20" viewBox="0 0 20 20" fill="none" xmlns="http://www.w3.org/2000/svg">
<g clip-path="url(#clip0_816_45386)">
<path d="M19.8453 7.21679C19.7487 6.96239 19.5774 6.74317 19.3539 6.58796C19.1304 6.43275 18.8652 6.34882 18.5931 6.34722H13.1931L11.2539 0.868934C11.1596 0.613957 10.9895 0.393989 10.7664 0.238635C10.5433 0.0832815 10.2779 0 10.0061 0C9.73422 0 9.46889 0.0832815 9.2458 0.238635C9.0227 0.393989 8.85255 0.613957 8.75825 0.868934L6.82781 6.33852H1.42778C1.15189 6.33377 0.881338 6.41492 0.653602 6.57073C0.425865 6.72654 0.25221 6.94931 0.156684 7.20818C0.0611583 7.46706 0.0484881 7.74923 0.120428 8.01563C0.192369 8.28202 0.34536 8.51946 0.558215 8.69505L5.14084 12.4864L3.22779 18.2429C3.13691 18.5114 3.13412 18.8018 3.21985 19.072C3.30557 19.3421 3.47532 19.5778 3.70436 19.7447C3.9334 19.9117 4.20977 20.0011 4.49318 20C4.77659 19.9989 5.05225 19.9073 5.27997 19.7386L10.0104 16.2603L14.7409 19.7386C14.9686 19.9073 15.2443 19.9989 15.5277 20C15.8111 20.0011 16.0875 19.9117 16.3165 19.7447C16.5455 19.5778 16.7153 19.3421 16.801 19.072C16.8867 18.8018 16.884 18.5114 16.7931 18.2429L14.8713 12.4864L19.4626 8.68636C19.6677 8.50894 19.8141 8.27346 19.8824 8.01105C19.9507 7.74864 19.9378 7.47168 19.8453 7.21679Z" fill="#0E61A9"/>
<path d="M13.1957 11.3595C13.0516 11.473 12.9471 11.6291 12.8971 11.8056C12.8471 11.9821 12.8542 12.1699 12.9174 12.3421L14.3174 16.5682C14.3339 16.613 14.3351 16.6619 14.321 16.7075C14.3068 16.7531 14.2781 16.7927 14.2392 16.8204C14.2002 16.8493 14.1529 16.8649 14.1044 16.8649C14.0558 16.8649 14.0086 16.8493 13.9696 16.8204L10.4913 14.2812C10.3335 14.1696 10.1454 14.109 9.95219 14.1073C9.75877 14.1078 9.57032 14.1686 9.41306 14.2812L5.96957 16.8291C5.93059 16.858 5.88333 16.8736 5.83478 16.8736C5.78623 16.8736 5.73898 16.858 5.7 16.8291C5.65919 16.801 5.62918 16.7598 5.61495 16.7124C5.60072 16.665 5.60311 16.6141 5.62174 16.5682L7.02174 12.3421C7.08493 12.1699 7.09204 11.9821 7.04206 11.8056C6.99208 11.6291 6.88757 11.473 6.74348 11.3595L3.26521 8.43772C3.22781 8.40893 3.2008 8.36876 3.18825 8.32326C3.1757 8.27777 3.17829 8.22943 3.19564 8.18554C3.20999 8.14109 3.23777 8.10217 3.27514 8.07415C3.31251 8.04612 3.35764 8.03035 3.40434 8.02902H7.43044C7.6197 8.03147 7.80503 7.97505 7.96082 7.86756C8.1166 7.76007 8.23513 7.60682 8.30001 7.42902L9.76089 3.27248C9.77851 3.22928 9.8086 3.19232 9.84731 3.16629C9.88603 3.14027 9.93163 3.12637 9.97828 3.12637C10.0249 3.12637 10.0705 3.14027 10.1092 3.16629C10.148 3.19232 10.178 3.22928 10.1957 3.27248L11.6565 7.42902C11.7214 7.60682 11.84 7.76007 11.9957 7.86756C12.1515 7.97505 12.3369 8.03147 12.5261 8.02902H16.587C16.6349 8.02983 16.6814 8.04526 16.7202 8.07324C16.7591 8.10121 16.7884 8.1404 16.8044 8.18554C16.8217 8.22943 16.8243 8.27777 16.8118 8.32326C16.7992 8.36876 16.7722 8.40893 16.7348 8.43772L13.1957 11.3595Z" fill="#F2A900"/>
</g>
<defs>
<clipPath id="clip0_816_45386">
<rect width="20" height="20" fill="white"/>
</clipPath>
</defs>
</svg>

<svg xmlns="http://www.w3.org/2000/svg" width="20" height="20" fill="none"><g clip-path="url(#a)"><path fill="#0E61A9" d="M19.845 7.217a1.348 1.348 0 0 0-1.252-.87h-5.4L11.253.87a1.33 1.33 0 0 0-2.495 0l-1.93 5.47h-5.4a1.33 1.33 0 0 0-.87 2.356l4.583 3.791-1.913 5.757a1.33 1.33 0 0 0 2.052 1.496l4.73-3.479 4.73 3.479a1.33 1.33 0 0 0 2.053-1.496l-1.922-5.757 4.592-3.8a1.339 1.339 0 0 0 .382-1.47Z"/><path fill="#F2A900" d="M13.196 11.36a.87.87 0 0 0-.279.982l1.4 4.226a.217.217 0 0 1-.078.252.227.227 0 0 1-.27 0l-3.478-2.539a.948.948 0 0 0-.539-.174.93.93 0 0 0-.539.174L5.97 16.83a.226.226 0 0 1-.27 0 .218.218 0 0 1-.078-.26l1.4-4.227a.87.87 0 0 0-.279-.982L3.265 8.438a.217.217 0 0 1-.07-.252.226.226 0 0 1 .21-.157H7.43a.913.913 0 0 0 .87-.6l1.46-4.157a.235.235 0 0 1 .436 0l1.46 4.157a.914.914 0 0 0 .87.6h4.061a.235.235 0 0 1 .217.157.218.218 0 0 1-.07.252l-3.538 2.921Z"/></g><defs><clipPath id="a"><path fill="#fff" d="M0 0h20v20H0z"/></clipPath></defs></svg>
